X:0
T:Katie Bairdie
G:children's game song
M:2/4
L:1/8
Q:1/4=90
K:F
c>d c>B|A>B c2|B>c B>A|G>A B2 |
c>d c>B|A>B c2|F2  A<F|G2  F2|]
